assets/images/product-illustrations/emptystate__expenses.svg

<svg xmlns="http://www.w3.org/2000/svg" width="184" height="116" fill="none" viewBox="0 0 184 116"><path fill="#FFFAF0" d="M55.5952 19.1127C55.5952 19.1127 49.5491 19.406 47.486 23.3889C45.4229 27.3685 25.2215 82.9596 25.2215 82.9596L17.4057 104.191C17.4057 104.191 14.1626 110.384 12.3928 111.12H139.937L153.795 106.241L158.475 93.5652L174.647 46.8999C174.647 46.8999 176.063 45.2101 175.03 44.0302C173.997 42.8503 167.804 29.875 167.804 29.875L139.2 29.5817L141.263 23.8322C141.263 23.8322 141.41 19.2627 136.544 18.9661C131.678 18.6728 55.5918 19.1127 55.5918 19.1127H55.5952Z"/><path fill="#FEE45E" d="M18.9515 101.096L16.8884 106.405L12.7488 111.305L144.582 111.565C144.582 111.565 155.198 109.352 155.345 101.539L18.9515 101.096Z"/><path fill="#FEE45E" d="M77.4889 15.7272L30.157 15.5373C30.157 15.5373 25.3308 15.4373 25.5108 20.5134L25.6908 25.5896L46.522 24.9363C46.522 24.9363 51.1682 20.0701 52.0515 19.7402C52.9347 19.4069 77.4856 19.0402 77.4856 19.0402V15.7272H77.4889Z"/><path fill="#FEE45E" d="M20.8681 95.272L15.2287 93.1722C15.2287 93.1722 14.2321 89.8558 12.1324 94.2787C10.0326 98.7016 12.4657 103.124 12.4657 103.124L17.2218 105.004L20.8715 95.272H20.8681Z"/><path fill="#FFF2B2" d="M39.5597 44.8445C39.5597 44.8445 26.511 40.1983 15.5621 47.2776C4.61317 54.3535 0.740225 67.6255 4.27987 77.7978C7.81952 87.9735 15.6721 95.0494 20.8682 95.2694L39.5564 44.8411L39.5597 44.8445Z"/><path fill="#E4BC06" d="M37.1266 51.3695L39.0064 44.7334C39.0064 44.7334 25.5144 39.9773 15.0088 47.3865C4.50319 54.7958 1.07353 66.7379 4.61318 78.9034C8.15282 91.0688 20.3183 95.0484 20.8682 95.2717L22.748 89.5223C22.748 89.5223 8.59278 85.6527 9.36603 68.1778C9.36603 59.552 19.5417 52.3627 21.3082 51.6994C23.078 51.0361 29.3807 50.0396 29.3807 50.0396C29.3807 50.0396 36.2367 49.8196 37.1233 51.3661L37.1266 51.3695Z"/><path fill="#E4BC06" d="M32.9241 62.8693L27.6146 77.4678C27.6146 77.4678 23.5217 74.0381 23.855 70.7218C24.1883 67.4055 26.7314 65.0824 27.1713 64.6391C27.6113 64.1958 31.7042 62.7593 32.9208 62.8693H32.9241Z"/><path fill="#FBCCFF" d="M3.24978 52.9529C3.24978 52.9529 3.10313 53.8361 3.54309 54.2794C3.98304 54.7227 6.85942 56.3426 6.85942 56.3426C6.85942 56.3426 11.429 50.2232 12.9788 49.2666L9.21919 47.2035C9.21919 47.2035 8.25928 46.6869 7.44936 47.2768C6.63944 47.8667 3.98304 50.8898 3.24645 52.9529H3.24978Z"/><path fill="#FCD407" d="M20.6483 44.6979L29.8641 43.0748L28.0942 38.5052C28.0942 38.5052 23.0081 37.622 19.3218 40.4217L20.6483 44.6979Z"/><path fill="#FBCCFF" d="M10.3994 88.9336L9.51619 92.2499L7.74637 93.5031L6.86312 95.5663L7.0831 97.2628L6.78979 98.8126L7.96968 101.762L8.7796 102.056C8.7796 102.056 7.52639 104.489 9.29621 105.372C11.066 106.255 12.2459 106.845 12.2459 106.845C12.2459 106.845 12.9825 109.132 14.1624 109.278C15.3423 109.425 16.5955 107.362 16.5955 107.362L16.9654 104.412L14.7523 103.305L13.0558 100.062L12.6125 96.7461L13.3491 94.1664L14.8223 92.9132L10.3994 88.9336Z"/><path fill="#FBCCFF" d="M24.961 37.8786C24.961 37.8786 22.8612 31.4659 17.7717 29.0328C17.7717 29.0328 21.0881 25.3832 31.0437 24.7199C40.9961 24.0567 47.0788 25.0532 47.0788 25.0532L39.5596 44.8479C39.5596 44.8479 33.3302 42.7481 29.8639 43.0781L28.094 38.5085L24.961 37.8819V37.8786Z"/><path fill="#FEE45E" d="M141.743 22.2461L141.19 24.8992L126.924 70.6812L131.571 67.8049L133.67 72.4511L137.65 69.2447L139.53 73.2243L143.179 70.6812L144.543 75.5374L149.372 71.7878L150.635 77.3272L155.345 73.1143L157.028 78.9804L161.178 74.8342L162.734 80.5802L180.336 30.2086C180.336 30.2086 183.652 22.5794 174.806 22.4661C165.96 22.3561 141.74 22.2461 141.74 22.2461H141.743Z"/><path fill="#FFF2B2" d="M77.489 19.0398H121.391C121.391 19.0398 122.718 9.64073 124.708 5.21784C124.708 5.21784 119.511 6.21441 116.302 8.75749L113.095 4.22461L106.683 9.20078L101.263 4.77789L95.8438 8.75749L91.421 4.88788L86.2248 9.31077L81.3586 5.33116C81.3586 5.33116 78.4822 8.42752 77.489 19.0431V19.0398Z"/><path fill="#E4BC06" d="M8.2631 104.734C8.2631 104.734 6.43328 109.444 9.58963 110.374C12.746 111.304 13.5692 110.817 13.5692 110.817L14.1592 109.277L11.4694 107.167L8.2631 104.734Z"/><path stroke="#002140" stroke-linecap="round" stroke-linejoin="round" stroke-width="1" d="M17.2649 104.638C17.2649 104.638 15.2384 111.274 11.6354 111.274C10.5322 111.274 9.70561 110.901 9.109 110.218C9.109 110.218 7.24252 108.961 8.58572 103.465"/><path stroke="#002140" stroke-linecap="round" stroke-linejoin="round" stroke-width="1" d="M139.393 29.6623L141.383 24.0229C141.383 24.0229 142.709 19.0467 136.407 19.0467H55.4546C55.4546 19.0467 48.9286 18.7534 46.4955 25.6827C43.5091 33.9752 17.3018 104.641 17.3018 104.641"/><path stroke="#002140" stroke-linecap="round" stroke-linejoin="round" stroke-width="1" d="M11.6721 111.273H143.706C143.706 111.273 151.998 110.94 154.984 103.311C157.971 95.6816 178.359 35.7476 180.122 31.318C181.885 26.8885 181.222 22.3556 174.143 22.3556C167.95 22.1356 141.629 22.3556 141.629 22.3556"/><path stroke="#002140" stroke-linecap="round" stroke-linejoin="round" stroke-width="1" d="M25.6943 25.5901C25.6343 24.9235 25.5643 24.2869 25.4843 23.6903C25.4843 23.6903 23.9344 15.5078 30.3505 15.5078C36.0999 15.5078 54.6814 15.7278 54.6814 15.7278H77.4891"/><path stroke="#002140" stroke-linecap="round" stroke-linejoin="round" stroke-width="1" d="M20.5847 95.4651C10.3157 91.6455 2.99976 81.7532 2.99976 70.151C2.99976 55.2392 15.0886 43.1504 30.0004 43.1504C33.2167 43.1504 36.3031 43.7137 39.1628 44.7436"/><path stroke="#002140" stroke-linecap="round" stroke-linejoin="round" stroke-width="1" d="M22.8074 89.8358C14.9615 86.9128 9.37207 79.3502 9.37207 70.4844C9.37207 59.0823 18.6145 49.8398 30.0167 49.8398C32.4298 49.8398 34.7462 50.2531 36.8993 51.0164"/><path stroke="#002140" stroke-linecap="round" stroke-linejoin="round" stroke-width="1" d="M15.0983 92.6853C14.1184 94.1884 12.2919 94.7717 10.9254 93.9851C9.50552 93.1652 9.12222 91.1721 10.0655 89.5356C10.1721 89.3489 10.2921 89.1756 10.4254 89.0156"/><path stroke="#002140" stroke-linecap="round" stroke-linejoin="round" stroke-width="1" d="M13.1053 94.2293C13.262 95.0359 13.122 95.9424 12.6487 96.7624C11.7021 98.4022 9.78566 99.0654 8.3658 98.2455C6.94595 97.4256 6.56265 95.4325 7.50589 93.796C7.97918 92.9761 8.69577 92.4028 9.46903 92.1328"/><path stroke="#002140" stroke-linecap="round" stroke-linejoin="round" stroke-width="1" d="M12.4885 97.453C12.6285 97.743 12.7385 98.0563 12.8052 98.3896C13.1818 100.243 12.1852 102.013 10.5787 102.339C8.9722 102.666 7.36236 101.429 6.98573 99.5728C6.81575 98.7328 6.92574 97.9129 7.24571 97.2363"/><path stroke="#002140" stroke-linecap="round" stroke-linejoin="round" stroke-width="1" d="M12.9953 100.352C13.7086 100.845 14.2619 101.658 14.4618 102.648C14.8385 104.501 13.8419 106.271 12.2354 106.598C10.6289 106.924 9.01904 105.688 8.64241 103.831C8.52909 103.278 8.53909 102.735 8.65241 102.231"/><path stroke="#002140" stroke-linecap="round" stroke-linejoin="round" stroke-width="1" d="M14.6251 109.521C14.0552 109.391 13.4953 109.115 13.002 108.695C12.392 108.175 11.9887 107.511 11.8054 106.828"/><path stroke="#002140" stroke-linecap="round" stroke-linejoin="round" stroke-width="1" d="M14.7656 103.281C15.4922 103.345 16.2355 103.645 16.8621 104.184C16.9921 104.294 17.1121 104.411 17.222 104.534"/><path stroke="#002140" stroke-linecap="round" stroke-linejoin="round" stroke-width="1" d="M27.3671 77.2811C25.3073 75.8912 23.9541 73.5348 23.9541 70.8617C23.9541 66.5855 27.4204 63.1191 31.6967 63.1191C31.99 63.1191 32.2833 63.1358 32.5666 63.1691"/><path stroke="#002140" stroke-linecap="round" stroke-linejoin="round" stroke-width="1" d="M30.2034 53.623V59.2991"/><path stroke="#002140" stroke-linecap="round" stroke-linejoin="round" stroke-width="1" d="M12.5854 71.0957H18.9981"/><path stroke="#002140" stroke-linecap="round" stroke-linejoin="round" stroke-width="1" d="M18.6284 58.9297L22.6114 63.1326"/><path stroke="#002140" stroke-linecap="round" stroke-linejoin="round" stroke-width="1" d="M22.2409 78.3945L17.6714 82.1542"/><path fill="#002140" d="M25.1907 66.5976L14.6485 62.248L13.6152 65.1211L23.7909 69.2507"/><path stroke="#002140" stroke-linecap="round" stroke-linejoin="round" stroke-width="1" d="M12.4352 48.9765L9.23553 46.9267C8.90556 46.7167 8.49227 46.6834 8.13897 46.85C7.06241 47.36 4.78597 48.8832 3.22613 53.0428C3.03614 53.546 3.23279 54.1127 3.68608 54.4026L6.60912 56.2724"/><path stroke="#002140" stroke-linecap="round" stroke-linejoin="round" stroke-width="1" d="M4.03296 51.7793L7.86591 54.1357"/><path stroke="#002140" stroke-linecap="round" stroke-linejoin="round" stroke-width="1" d="M5.5061 49.8594L9.33905 52.2191"/><path stroke="#002140" stroke-linecap="round" stroke-linejoin="round" stroke-width="1" d="M7.05591 48.2402L10.8889 50.6"/><path stroke="#002140" stroke-linecap="round" stroke-linejoin="round" stroke-width="1" d="M29.6508 42.8685L28.6276 39.2088C28.521 38.8322 28.2343 38.5322 27.861 38.4222C26.7178 38.0856 24.0081 37.7057 20.0718 39.7721C19.5952 40.0221 19.3652 40.5754 19.5085 41.092L20.4418 44.435"/><path stroke="#002140" stroke-linecap="round" stroke-linejoin="round" stroke-width="1" d="M21.5181 39.3613L22.8046 43.6742"/><path stroke="#002140" stroke-linecap="round" stroke-linejoin="round" stroke-width="1" d="M23.894 38.9121L25.1806 43.225"/><path stroke="#002140" stroke-linecap="round" stroke-linejoin="round" stroke-width="1" d="M26.1277 38.7344L27.4176 43.0473"/><path stroke="#002140" stroke-linecap="round" stroke-linejoin="round" stroke-width="1" d="M18.6284 101.322H155.538"/><path stroke="#002140" stroke-linecap="round" stroke-linejoin="round" stroke-width="1" d="M46.4987 24.9066C46.4987 24.9066 29.3571 21.9202 17.5249 28.9995C17.5249 28.9995 24.0509 31.6526 24.7142 38.0686"/><path stroke="#002140" stroke-linecap="round" stroke-linejoin="round" stroke-width="1" d="M28.7473 30.4881C28.7473 30.4881 37.5931 27.835 44.8924 29.4915"/><path stroke="#002140" stroke-linecap="round" stroke-linejoin="round" stroke-width="1" d="M29.5239 34.9144C29.5239 34.9144 36.7032 32.7613 43.4625 33.5446"/><path stroke="#002140" stroke-linecap="round" stroke-linejoin="round" stroke-width="1" d="M30.6838 39.3909C30.6838 39.3909 36.0733 37.7744 41.9094 37.8544"/><path stroke="#002140" stroke-linecap="round" stroke-linejoin="round" stroke-width="1" d="M139.393 29.6621L126.784 70.4214"/><path stroke="#002140" stroke-linecap="round" stroke-linejoin="round" stroke-width="1" d="M77.489 19.0401C77.489 19.0401 77.7823 10.4876 81.322 5.03151L86.3348 9.30775L91.421 4.58822L95.9172 9.01111L101.227 4.44157L106.323 9.20109C106.323 9.20109 112.845 3.71497 113.072 4.01161C113.299 4.30825 116.118 8.57449 116.118 8.57449C116.118 8.57449 120.688 5.03484 125.114 5.03484"/><path stroke="#002140" stroke-linecap="round" stroke-linejoin="round" stroke-width="1" d="M121.281 19.0398C121.281 19.0398 121.575 10.4874 125.114 5.03125"/><path stroke="#002140" stroke-linecap="round" stroke-linejoin="round" stroke-width="1" d="M84.6414 12.3672H106.096"/><path stroke="#002140" stroke-linecap="round" stroke-linejoin="round" stroke-width="1" d="M83.905 16.0566H113.762"/><path stroke="#002140" stroke-linecap="round" stroke-linejoin="round" stroke-width="1" d="M136.104 61.0625L161.098 67.0352"/><path stroke="#002140" stroke-linecap="round" stroke-linejoin="round" stroke-width="1" d="M138.76 53.3984L163.751 59.3678"/><path stroke="#002140" stroke-linecap="round" stroke-linejoin="round" stroke-width="1" d="M141.303 45.6855L165.227 51.325"/><path stroke="#002140" stroke-linecap="round" stroke-linejoin="round" stroke-width="1" d="M143.403 39.3789L167.327 45.0183"/><path stroke="#002140" stroke-linecap="round" stroke-linejoin="round" stroke-width="1" d="M145.063 33.6289L168.987 39.2683"/><path stroke="#002140" stroke-linecap="round" stroke-linejoin="round" stroke-width="1" d="M162.857 81.0341L161.178 74.8347L157.125 79.3476L155.512 73.2482L150.699 77.6444L149.445 71.5617L144.556 75.6946L143.546 70.2685L139.566 73.9548L137.723 68.8686L133.444 73.0649L131.604 67.4688L126.811 70.4218"/></svg>

<svg xmlns="http://www.w3.org/2000/svg" width="184" height="116" fill="none" viewBox="0 0 184 116"><path fill="#fffaf0" d="M55.595 19.113s-6.046.293-8.109 4.276c-2.063 3.98-22.264 59.57-22.264 59.57l-7.816 21.232s-3.243 6.193-5.013 6.929h127.544l13.858-4.879 4.68-12.676L174.647 46.9s1.416-1.69.383-2.87-7.226-14.155-7.226-14.155l-28.604-.293 2.063-5.75s.147-4.57-4.719-4.866c-4.866-.293-80.952.147-80.952.147z"/><path fill="#fee45e" d="m18.952 101.096-2.064 5.309-4.14 4.9 131.834.26s10.616-2.213 10.763-10.026zM77.489 15.727l-47.332-.19s-4.826-.1-4.646 4.976l.18 5.077 20.831-.654s4.646-4.866 5.53-5.196c.883-.333 25.434-.7 25.434-.7v-3.313z"/><path fill="#fee45e" d="m20.868 95.272-5.64-2.1s-.996-3.316-3.096 1.107.334 8.845.334 8.845l4.756 1.88 3.65-9.732z"/><path fill="#fff2b2" d="M39.56 44.845s-13.049-4.647-23.998 2.433C4.613 54.353.74 67.626 4.28 77.798c3.54 10.176 11.392 17.251 16.588 17.471l18.688-50.428z"/><path fill="#e4bc06" d="m37.127 51.37 1.88-6.637s-13.493-4.756-23.998 2.654C4.503 54.796 1.074 66.737 4.613 78.903c3.54 12.166 15.705 16.145 16.255 16.369l1.88-5.75S8.593 85.652 9.366 68.178c0-8.626 10.176-15.815 11.942-16.479 1.77-.663 8.073-1.66 8.073-1.66s6.856-.22 7.742 1.327z"/><path fill="#e4bc06" d="m32.924 62.87-5.31 14.598s-4.092-3.43-3.759-6.746 2.876-5.64 3.316-6.083 4.533-1.88 5.75-1.77z"/><path fill="#fbccff" d="M3.25 52.953s-.147.883.293 1.326 3.316 2.064 3.316 2.064 4.57-6.12 6.12-7.076l-3.76-2.064s-.96-.516-1.77.074-3.466 3.613-4.203 5.676z"/><path fill="#fcd407" d="m20.648 44.698 9.216-1.623-1.77-4.57s-5.086-.883-8.772 1.917z"/><path fill="#fbccff" d="m10.4 88.934-.884 3.316-1.77 1.253-.883 2.063.22 1.697-.293 1.55 1.18 2.949.81.294s-1.254 2.433.516 3.316l2.95 1.473s.736 2.287 1.916 2.433c1.18.147 2.434-1.916 2.434-1.916l.37-2.95-2.214-1.107-1.696-3.243-.443-3.316.736-2.58 1.473-1.253zM24.961 37.879s-2.1-6.413-7.19-8.846c0 0 3.317-3.65 13.273-4.313 9.952-.663 16.035.333 16.035.333l-7.52 19.795s-6.229-2.1-9.695-1.77l-1.77-4.57-3.133-.626z"/><path fill="#fee45e" d="m141.743 22.246-.553 2.653-14.266 45.782 4.647-2.876 2.099 4.646 3.98-3.206 1.88 3.98 3.649-2.544 1.364 4.856 4.829-3.75 1.263 5.54 4.71-4.213 1.683 5.866 4.15-4.146 1.556 5.746 17.602-50.371s3.316-7.63-5.53-7.743c-8.846-.11-33.066-.22-33.066-.22z"/><path fill="#fff2b2" d="M77.489 19.04h43.902s1.327-9.4 3.317-13.822c0 0-5.197.996-8.406 3.54l-3.207-4.533-6.412 4.976-5.42-4.423-5.42 3.98-4.422-3.87-5.196 4.423-4.866-3.98s-2.877 3.097-3.87 13.712z"/><path fill="#e4bc06" d="M8.263 104.734s-1.83 4.71 1.327 5.64 3.98.443 3.98.443l.59-1.54-2.69-2.11z"/><path stroke="#002140" stroke-linecap="round" stroke-linejoin="round" d="M17.265 104.638s-2.027 6.636-5.63 6.636c-1.103 0-1.93-.373-2.526-1.056 0 0-1.866-1.257-.523-6.753M139.393 29.662l1.99-5.64s1.326-4.975-4.976-4.975H55.455s-6.526-.294-8.96 6.636c-2.986 8.292-29.193 78.958-29.193 78.958"/><path stroke="#002140" stroke-linecap="round" stroke-linejoin="round" d="M11.672 111.273h132.034s8.292-.333 11.278-7.962c2.987-7.63 23.375-67.563 25.138-71.993s1.1-8.962-5.979-8.962c-6.193-.22-32.514 0-32.514 0M25.694 25.59c-.06-.666-.13-1.303-.21-1.9 0 0-1.55-8.182 4.866-8.182 5.75 0 24.331.22 24.331.22H77.49M20.585 95.465C10.315 91.645 3 81.753 3 70.151c0-14.912 12.089-27 27-27 3.217 0 6.303.563 9.163 1.593"/><path stroke="#002140" stroke-linecap="round" stroke-linejoin="round" d="M22.807 89.836C14.962 86.913 9.372 79.35 9.372 70.484c0-11.402 9.243-20.644 20.645-20.644 2.413 0 4.73.413 6.882 1.176M15.098 92.685c-.98 1.503-2.806 2.087-4.173 1.3-1.42-.82-1.803-2.813-.86-4.45q.16-.28.36-.52"/><path stroke="#002140" stroke-linecap="round" stroke-linejoin="round" d="M13.105 94.23c.157.806.017 1.712-.456 2.532-.947 1.64-2.863 2.303-4.283 1.484-1.42-.82-1.803-2.813-.86-4.45.473-.82 1.19-1.393 1.963-1.663"/><path stroke="#002140" stroke-linecap="round" stroke-linejoin="round" d="M12.489 97.453c.14.29.25.603.316.937.377 1.853-.62 3.623-2.226 3.949-1.607.327-3.217-.91-3.593-2.766-.17-.84-.06-1.66.26-2.337"/><path stroke="#002140" stroke-linecap="round" stroke-linejoin="round" d="M12.995 100.352c.714.493 1.267 1.306 1.467 2.296.377 1.853-.62 3.623-2.227 3.95s-3.216-.91-3.593-2.767a3.8 3.8 0 0 1 .01-1.6M14.625 109.521a3.8 3.8 0 0 1-1.623-.826 3.75 3.75 0 0 1-1.197-1.867M14.766 103.281c.726.064 1.47.364 2.096.903q.195.165.36.35M27.367 77.281a7.742 7.742 0 0 1 5.2-14.112M30.203 53.623v5.676M12.585 71.096h6.413M18.628 58.93l3.983 4.203M22.24 78.395l-4.569 3.76"/><path fill="#002140" d="m25.19 66.598-10.542-4.35-1.033 2.873 10.176 4.13"/><path stroke="#002140" stroke-linecap="round" stroke-linejoin="round" d="m12.435 48.977-3.2-2.05a1.14 1.14 0 0 0-1.096-.077c-1.077.51-3.353 2.033-4.913 6.193a1.14 1.14 0 0 0 .46 1.36l2.923 1.87M4.033 51.78l3.833 2.356M5.506 49.86l3.833 2.36M7.056 48.24l3.833 2.36M29.65 42.869l-1.022-3.66a1.14 1.14 0 0 0-.767-.787c-1.143-.336-3.853-.716-7.79 1.35-.476.25-.706.803-.562 1.32l.933 3.343M21.518 39.361l1.287 4.313M23.894 38.912l1.287 4.313M26.128 38.734l1.29 4.313M18.628 101.322h136.91"/><path stroke="#002140" stroke-linecap="round" stroke-linejoin="round" d="M46.499 24.907S29.357 21.92 17.525 29c0 0 6.526 2.653 7.19 9.069"/><path stroke="#002140" stroke-linecap="round" stroke-linejoin="round" d="M28.747 30.488s8.846-2.653 16.145-.997M29.524 34.914s7.18-2.153 13.938-1.37M30.684 39.39s5.39-1.616 11.225-1.536M139.393 29.662l-12.609 40.76M77.489 19.04s.293-8.552 3.833-14.008l5.013 4.276 5.086-4.72 4.496 4.423 5.31-4.57 5.096 4.76s6.522-5.486 6.749-5.19c.227.297 3.046 4.563 3.046 4.563s4.57-3.54 8.996-3.54"/><path stroke="#002140" stroke-linecap="round" stroke-linejoin="round" d="M121.281 19.04s.294-8.553 3.833-14.009M84.641 12.367h21.455M83.905 16.057h29.857M136.104 61.063l24.994 5.972M138.76 53.398l24.991 5.97M141.303 45.686l23.924 5.639M143.403 39.379l23.924 5.64M145.063 33.629l23.924 5.64M162.857 81.034l-1.679-6.2-4.053 4.514-1.613-6.1-4.813 4.396-1.254-6.082-4.889 4.133-1.01-5.426-3.98 3.686-1.843-5.086-4.279 4.196-1.84-5.596-4.793 2.953"/></svg>
